X:148
T:Seeds of Love Version 1 of 2 
%%VWML:GB-6a-148-0
F:http://www.vwml.org/record/GB/6a/148
C:Transcribed by Simon Furey and Lewis Jones
L:1/8
M:4/4
I:linebreak $
K:F
EF | G2 EF G2 A2 | F6 c2 | d2 c>B A2 F>A | c6 c2 |$ d2 c>B A2 FA | c2 AF D2 EF | GBAG C2 G2 | F6 |]
T:Seeds of Love Version 2 of 2 
C:Sung by Mrs Golds, Washington, Sussex XII. 07
L:1/8
M:4/4
I:linebreak $
K:F
C2 | F2 EF G2 FG | F6 c2 | d2 cB A2 FA | c6 c2 |$ d2 cB A2 FA | c2 AF D2 EF | GBAG C2 EG | F6 |]


